X: 124
T: Cary's Maggot
P: Longways for as many as will
%R:
B: "The Dancing-Master: Containing Directions and Tunes for Dancing" printed by W. Pearson for John Walsh, London ca. 1709
S: 7: DMDfD http://digital.nls.uk/special-collections-of-printed-music/pageturner.cfm?id=89751228 p.269 "A a 3"
Z: 2013 John Chambers <jc:trillian.mit.edu>
M: 3/2
L: 1/8
K: D
% - - - - - - - - - - - - - - - - - - - - - - - - -
[|\
d4 F4 E4 | F2 D4 EF G2E2 | d4 F4 f4 | e2dc B2cd c2A2 |\
a4 f4 g4 | f2d2 e2c2 d2A2 | d2 F4 E4 c2 | d6 F2 E2D2 |]
[|\
D2 F4 G2 A2(GF) | G2(AB) (=cB) (AG) F2A2 | f2 d4 f2 e2g2 | fgfe dedc B2A2 |\
a2 e4 fg f2e2 | FGA2 B2c2 d2F2 | (EF)E2 FGF2 ABA2 | B2 d4 c2 d4 |]
% - - - - - - - - - - - - - - - - - - - - - - - - -
%%begintext align
%% The 1. cu. cast off, the 1. man turns the 3. wo. with his right-hand, the 1. wo. turns the 3. man, then
%% go the half Figure and cast up to the 2. cu. place. The 1. man turns the 2. wo. with his right-hand,
%% and the 1. wo. turns the 2. man, then go the half Figure through the 2. cu. the 1. wo. Heys on the men's
%% sides; and turn her Partner, the man does the same with the wo. and turn his Partner.
%% [DMDfD]
%%endtext
%%sep 1 8 500

%%sep 1 1 500
%%sep 1 1 500
